X:1
T:Sonata in a for 2 cornets and 3 sackbuts and basso continuo
T:Sonata in a for 2 cornets and 3 sackbuts and basso continuo
T:Daniel Speer (1636-1707)
T:by Mutopia-2009/03/05-1640 - public domain
T:by Mutopia-2009/03/05-1640 - public domain
T:by Mutopia-2009/03/05-1640 - public domain
T:by Mutopia-2009/03/05-1640 - public domain
C:Daniel Speer (1636-1707)
Z:by Mutopia-2009/03/05-1640 - public domain
%%score 1 2 3 ( 4 5 )
L:1/8
Q:1/4=120
M:4/4
K:Bb
V:1 treble transpose=-2 nm="Trumpet 1"
V:2 treble transpose=-2 nm="Trumpet 2"
V:3 bass nm="Trambone 1"
V:4 bass nm="Tuba/Tra 2"
V:5 bass 
V:1
[K:C] z8 | z8 | z8 | z!f! gec f2 e2 | d3 d !breath!cggg | aeee !breath!feed | !breath!eBBB ccdd | %7
 e3 e dcBA | A3 A B4 | z4 z!p! c/_B/ AB/c/ | dAAA B4 | z4 z!f! e/d/ cd/e/ | %12
[K:C] fd/c/ Bc/d/ eg/f/ ef/g/ | agfe d2 e2 | d3 d e4 :: z8 | z8 | z8 | z8 | z8 | z8 | z8 | %22
 z!f! ce>d ced>d | !breath!e!p!ce>d ced>d | e!mf!!breath!c e/d/c/B/ cc f/e/d/c/ | %25
 dd g/f/e/d/ ee a/g/f/e/ | ded>d !breath!e!f!ce>d | ced>d e!p!ce>d | ced>d !breath!e!mp!GGA/B/ | %29
 cccc B3 B | ^c4 z4 | z ddd ee e/d/c/B/ | !breath!Accc ff e2 | !breath!d!f!aaa bb b/a/g/f/ | %34
 !breath!eeed/e/ fe d2 | !breath!cecA d4- | d2 c2 B3 B | !fermata!^c8 :| %38
V:2
[K:C] z8 | z8 | z8 | z!f! ecG cdcc | c2 B2 !breath!cedd | ccBB !breath!AAA>A | !breath!^GGGG AABB | %7
 c3 c BAGG | G2 ^F2 G4 | z4 z!p! A/G/ FG/A/ | FFFF G4 | z4 z!f! c/B/ AB/c/ | %12
[K:C] df/e/ de/f/ ge/d/ cd/e/ | fedc B2 c2 | c2 B2 c4 :: z8 | z8 | z8 | z8 | z8 | z8 | z8 | %22
 z!f! Gc>B Acc>B | !breath!c!p!Gc>B Acc>B | !breath!c!mf!G c/B/A/G/ AA d/c/B/A/ | %25
 BB e/d/c/B/ cc f/e/d/c/ | BccB !breath!c!f!Gc>B | Acc>B c!p!Gc>B | Acc>B !breath!c!mp!EEF/G/ | %29
 AAAA A2 ^G2 | A4 z4 | z BBB cc c/B/A/G/ | !breath!AAAA ddd^c | !breath!d!f!^fff gg g/=f/e/d/ | %34
 !breath!eccB/c/ AccB | !breath!ccAF/G/ A2 A2 | A4 ^G4 | !fermata!A8 :| %38
V:3
 z!f! DB,G, C2 B,2 | A,3 A, !breath!G,DDD | EB,B,B, CB,B,A, | B,B,B,B, B,A,DB, | %4
 F3 E !breath!DB,CC | DDFF !breath!B,B,E>E | A,3 D DDFF | F3 F F2 C2 | C3 B, A,C/B,/ A,B,/C/ | %9
 DF,F,F, G,4 | z4 z!mf! C/B,/ A,B,/C/ | DA,A,A, !breath!B,DDD | C2 CA, A,2 DD | G,2 B,2 F,2 DB, | %14
 C4 B,4 :: z2!mf! B,B, A,2 A,2 | z2 DD CCFF | F2 =E2 F2 F2 | D>C B,B, A,2 A,A, | B,B,CG, A,A,B,A, | %20
 G,>G, A,C B,CDD | D2 ^C2 D4 | z!f! DDD EFF>E | !breath!D!p!DDD EFF>E | !breath!D2!mf! B,2 E2 CC | %25
 F2 DD G2 EE | F3 F !breath!B,!f!DDD | EF F>E D!p!DDD | EFF>E !breath!D2!mp! D2 | D2 D2 D3 C | %30
 =B,DDD =EE E/D/C/_B,/ | C2 z2 z4 | z EEE EC D2 | !breath!=E!f!CCC C3 C | !breath!DFFF GFF>E | %35
 !breath!DFGG C2 E2 | A,2 B,C D4 | !fermata!D8 :| %38
V:4
!f! z B,G,D, G,A,G,G, | G,2 ^F,2 !breath!G,B,A,A, | G,G,F,F, E,F,G,C, | D,F,F,F, G,CF,G, | %4
 C2 F,2 !breath!F,F,A,A, | B,G,A,A, !breath!B,G,G,>G, | D,3 A, G,B,A,C | B,3 B, C2 C2 | %8
 G,3 G, F,A,/G,/ F,G,/A,/ | B,D,D,D, E,4 | z4 z A,/G,/ F,G,/A,/ | F,F,F,F,!f! !breath!G,B,B,B, | %12
 G,2 A,F, F,2 B,B, | B,2 G,2 A,2 F,2 | F,3 F, F,4 ::!mf! z2 G,G, ^F,2 F,2 | z2 B,B, A,A,CC | %17
 B,3 B, A,2 A,2 | B,>A, G,G, ^F,2 F,F, | G,D,=E,E, F,C,D,F, | F,>=E, F,A, B,A,G,F, | =E,3 E, D,4 | %22
!f! z B,B,B, B,B,C>C | !breath!B,B,B,B,!p! B,B,C>C | B,2 z2 z4 | z8 | z4 z!f! B,B,B, | %27
 B,B,>CC B,B,!p!B,B, | B,B,C>C !breath!B,2 B,2 |!mp! B,2 G,E, A,3 A, | G,=B,B,B, CC C/_B,/A,/G,/ | %31
 A,2 z2 z4 | z B,B,B, CG, G,2 | !breath!G,G,G,G,!f!!f! F,3 A, | !breath!B,DB,B, B,B, C2 | %35
 !breath!DB,B,B, C2 G,E, | A,2 G,2 ^F,2 A,2 | !fermata!G,8 :| %38
V:5
 G,,4 z4 | D,4 G,,G,=F,F, | E,2 D,2 C,D,E,F,, | B,,4 G,,A,,B,,E,, | F,,4 B,,2 A,,2 | %5
 G,,2 F,,2 E,,G,, E,,2 | D,,4 G,,2 F,,2 | B,,4 F,,G,,A,,B,, | C,4 F,,4 | B,,4 E,4 | C,4 F,4 | %11
 D,4 G,4 | C,2 F,2 D,2 G,2 | E,4 F,2 B,,2 | F,4 B,,4 :: G,,4 D,4 | B,,4 F,4 | G,4 F,4 | %18
 G,G,,B,,C, D,4 | G,,2 C,2 F,,2 B,,2 | C,2 F,,2 G,,4 | A,,4 D,,4 | B,,4 E,D,F,F,, | B,,4 E,D, F,2 | %24
 B,,2 z2 z4 | z8 | z4 z B,,B,,B,, | E,D,F,F,, B,,2 B,,B,, | E,D, F,2 B,,4 | G,,A,,B,,C, D,4 | %30
 G,,4 C,4 | F,4 B,,4 | E,4 C,2 G,2 | C,4 F,,4 | D,4 E,,B,, F,2 | B,,2 E,2 C,4 | D,8 | %37
 !fermata!G,,8 :| %38

